site/static/images/twitter.svg

<svg height="21" viewBox="0 0 26 21" width="26" xmlns="http://www.w3.org/2000/svg"><path d="m25.8556252 2.57423402c-.9414118.41797155-1.953137.69922326-3.0156434.82813005 1.0820376-.65234798 1.9179807-1.67969825 2.308608-2.90626773-1.0156312.60156567-2.140638 1.03906834-3.3359583 1.27344477-.9570369-1.01953722-2.3203262-1.65626011-3.8320544-1.65626011-2.8984557 0-5.250032 2.35157735-5.250032 5.25003204 0 .4101595.0468752.81250495.1367198 1.19532029-4.36330863-.21875133-8.23051923-2.31251411-10.82037903-5.48831449-.45312777.77734774-.71094134 1.67969725-.71094134 2.64454714 0 1.8203231.92578665 3.4258019 2.33595126 4.36721365-.86328627-.02734317-1.67188521-.2617196-2.37892052-.65625401v.06640741c0 2.54298347 1.80860504 4.66409047 4.21096269 5.14846837-.44140869.1210948-.9023485.1835952-1.38282043.1835952-.33984608 0-.66797308-.0312502-.98828703-.0937506.66797207 2.0820437 2.60548389 3.605491 4.90237291 3.6445532-1.79297894 1.4101646-4.05861777 2.2461077-6.51957078 2.2461077-.4257836 0-.83984913-.0234381-1.25000763-.0703134 2.32032716 1.4882911 5.08206201 2.3554834 8.0469241 2.3554834 9.6563089 0 14.9375912-8.0000488 14.9375912-14.93368515 0-.2304694-.0039061-.45703378-.0156251-.68359717 1.0273502-.73437948 1.9179807-1.66016713 2.62111-2.71486056" fill="#8492a6" transform=""/></svg>

<?xml version="1.0" encoding="UTF-8"?>
<svg width="26px" height="21px" viewBox="0 0 26 21" version="1.1" xmlns="http://www.w3.org/2000/svg" xmlns:xlink="http://www.w3.org/1999/xlink">
    <!-- Generator: Sketch 48.2 (47327) - http://www.bohemiancoding.com/sketch -->
    <title>icons8-twitter</title>
    <desc>Created with Sketch.</desc>
    <defs></defs>
    <g id="icons" stroke="none" stroke-width="1" fill="none" fill-rule="evenodd" transform="translate(-212.000000, -1261.000000)">
        <g id="icons8-twitter" transform="translate(212.000000, 1261.000000)" fill="#8492A6" fill-rule="nonzero">
            <path d="M25.8556252,2.57423402 C24.9142134,2.99220557 23.9024882,3.27345728 22.8399818,3.40236407 C23.9220194,2.75001609 24.7579625,1.72266582 25.1485898,0.496096336 C24.1329586,1.09766201 23.0079518,1.53516468 21.8126315,1.76954111 C20.8555946,0.750003885 19.4923053,0.113281 17.9805771,0.113281 C15.0821214,0.113281 12.7305451,2.46485835 12.7305451,5.36331304 C12.7305451,5.77347254 12.7774203,6.17581799 12.8672649,6.55863333 C8.50395627,6.339882 4.63674567,4.24611922 2.04688587,1.07031884 C1.5937581,1.84766658 1.33594453,2.75001609 1.33594453,3.71486598 C1.33594453,5.53518908 2.26173118,7.14066788 3.67189579,8.08207963 C2.80860952,8.05473646 2.00001058,7.82036003 1.29297527,7.42582562 C1.29297527,7.44926376 1.29297527,7.46879488 1.29297527,7.49223303 C1.29297527,10.0352165 3.10158031,12.1563235 5.50393796,12.6407014 C5.06252927,12.7617962 4.60158946,12.8242966 4.12111753,12.8242966 C3.78127145,12.8242966 3.45314445,12.7930464 3.1328305,12.730546 C3.80080257,14.8125897 5.73831439,16.336037 8.03520341,16.3750992 C6.24222447,17.7852638 3.97658564,18.6212069 1.51563263,18.6212069 C1.08984903,18.6212069 0.675783503,18.5977688 0.265625,18.5508935 C2.58595216,20.0391846 5.34768701,20.9063769 8.3125491,20.9063769 C17.968858,20.9063769 23.2501403,12.9063281 23.2501403,5.97269175 C23.2501403,5.74222235 23.2462342,5.51565797 23.2345152,5.28909458 C24.2618654,4.5547151 25.1524959,3.62892745 25.8556252,2.57423402" id="Shape"></path>
        </g>
    </g>
</svg>
